X: 103
T: 9 Les Noces
T: les Noces
B: Robert Landrin "Potpourri fran\,cois des contre-danse ancienne tel quil se danse chez la Reine ..." 1760 p.10 #3 dance 03 #3
S: http://memory.loc.gov/cgi-bin/query/D?musdibib:2:./temp/~ammem_EbRS:
Z: 2014 John Chambers <jc:trillian.mit.edu>
N: The 2nd strain has 14 bars.
M: 2/2
L: 1/8
K: G
% - - - - - - - - - - - - - - - - - - - - - - - - -
G2A2 |\
B2c2 dcBA | B2G2 d2g2 |\
d2Bc dcBA | B2G2 G2A2 |\
B2c2 dcBA | B2G2 d2g2 |\
d2Bc dcBA | G4 :|
|: "2f"d2ef |\
g2fe d2c2 | !+!B4 d2cB |\
A2G2 !+!F2G2 | d2D2 g2!+!f2 |\
g2d2 g2!+!f2 | g4 G2A2 |\
!+!B2c2 dcBA |
B2G2 G2A2 |\
!+!B2c2 dcBA | G2ef g2fe |\
d2ef g2fe | d4 g2fe |\
d2G2 A2!+!F2 | G4 :|
% - - - - - - - - - - - - - - - - - - - - - - - - -

%%newpage
%%sep 1 1 500
%%sep 1 1 500
